X:27
T:Hakie
M:C|
L:1/8
K:AMin
a|geec dega    |geed cBcA       |geec degd    |e/e/e a^g aAA:|
B|c2ce d/d/d de|c2ce d/c/B/A/ GB|c2ce d/d/d dg|ea^gb aAA:|

